public/library/abdk-icon-dark.svg

<svg width="72" height="72" viewBox="0 0 72 72" fill="none" xmlns="http://www.w3.org/2000/svg">
<g clip-path="url(#clip0_254_8376)">
<circle cx="36" cy="36" r="36" fill="white"/>
<path fill-rule="evenodd" clip-rule="evenodd" d="M47.0752 36.4351C50.0818 38.2991 53.4249 39.6938 57.0399 40.5394C57.0414 40.5382 57.043 40.537 57.0445 40.5357C57.0448 40.536 57.0451 40.536 57.0451 40.536C52.4481 44.0701 49.587 46.6559 46.6521 49.7772C43.5995 53.0234 40.3533 56.8455 36.4474 63.0028C36.3014 62.7903 36.0754 62.445 35.7939 62.0151C34.9244 60.6874 33.5267 58.5529 32.332 57.034C34.3845 48.2591 39.6932 41.0794 47.0752 36.4351Z" fill="#2E52D0"/>
<path fill-rule="evenodd" clip-rule="evenodd" d="M36.4336 25.7947C38.3027 22.7885 39.6923 19.4564 40.5378 15.8414C40.5367 15.8399 40.5355 15.8383 40.5342 15.8368C40.5343 15.8365 40.5344 15.8362 40.5344 15.8362C44.0686 20.4333 46.6544 23.2944 49.7757 26.2294C53.0218 29.2818 56.844 32.528 63.0013 36.4339C62.7887 36.5799 62.4435 36.8059 62.0136 37.0875C60.6859 37.9569 58.5513 39.3547 57.0324 40.5493C48.2576 38.4969 41.0779 33.1767 36.4336 25.7947Z" fill="#9D63D3"/>
<path fill-rule="evenodd" clip-rule="evenodd" d="M25.798 36.439C22.7915 34.575 19.4483 33.1803 15.8333 32.3349C15.8318 32.3361 15.8302 32.3372 15.8287 32.3384C15.8284 32.3383 15.8281 32.3383 15.8281 32.3383C20.4252 28.804 23.2862 26.2182 26.2213 23.0971C29.2737 19.8509 32.5199 16.0287 36.4258 9.8714C36.5718 10.0839 36.7979 10.4292 37.0794 10.859C37.9489 12.1869 39.3466 14.3213 40.5412 15.8402C38.4888 24.6151 33.18 31.7949 25.798 36.439Z" fill="#82E0FF"/>
<path fill-rule="evenodd" clip-rule="evenodd" d="M36.451 47.0696C34.587 50.0761 33.1819 53.4193 32.3365 57.0343C32.3376 57.0358 32.3388 57.0374 32.3401 57.0389C32.34 57.0393 32.3399 57.0395 32.3399 57.0395C28.8057 52.4425 26.2199 49.5813 23.0986 46.6464C19.8525 43.5939 16.0304 40.3477 9.87305 36.4418C10.0855 36.2958 10.4309 36.0698 10.8607 35.7883C12.1884 34.9188 14.323 33.5211 15.8419 32.3265C24.6167 34.3788 31.8069 39.6876 36.451 47.0696Z" fill="#51AB96"/>
</g>
<defs>
<clipPath id="clip0_254_8376">
<rect width="72" height="72" fill="white"/>
</clipPath>
</defs>
</svg>

<svg xmlns="http://www.w3.org/2000/svg" width="72" height="72" fill="none" viewBox="0 0 72 72"><g clip-path="url(#a)"><circle cx="36" cy="36" r="36" fill="#fff"/><path fill="#2e52d0" fill-rule="evenodd" d="M47.075 36.435a33.2 33.2 0 0 0 9.965 4.104l.005-.003c-4.597 3.534-7.458 6.12-10.393 9.241-3.053 3.246-6.299 7.069-10.205 13.226-.146-.213-.372-.558-.653-.988-.87-1.328-2.267-3.462-3.462-4.981 2.053-8.775 7.361-15.955 14.743-20.599" clip-rule="evenodd"/><path fill="#9d63d3" fill-rule="evenodd" d="M36.434 25.795a33 33 0 0 0 4.104-9.954l-.004-.004c3.535 4.596 6.12 7.457 9.242 10.392 3.246 3.053 7.068 6.299 13.225 10.205-.212.146-.557.372-.987.654-1.328.869-3.463 2.267-4.982 3.461-8.774-2.052-15.954-7.372-20.598-14.754" clip-rule="evenodd"/><path fill="#82e0ff" fill-rule="evenodd" d="M25.798 36.439a33.2 33.2 0 0 0-9.965-4.104l-.004.003c4.596-3.534 7.457-6.12 10.392-9.24 3.053-3.247 6.299-7.07 10.205-13.227.146.213.372.558.653.988.87 1.328 2.268 3.462 3.462 4.981-2.052 8.775-7.361 15.955-14.743 20.599" clip-rule="evenodd"/><path fill="#51ab96" fill-rule="evenodd" d="M36.451 47.07a33.2 33.2 0 0 0-4.114 9.964l.003.005c-3.534-4.596-6.12-7.458-9.241-10.393-3.247-3.052-7.069-6.298-13.226-10.204.213-.146.558-.372.988-.654 1.327-.87 3.462-2.267 4.98-3.461 8.776 2.052 15.966 7.36 20.61 14.743" clip-rule="evenodd"/></g><defs><clipPath id="a"><path fill="#fff" d="M0 0h72v72H0z"/></clipPath></defs></svg>
